Newaita-dark/apps/48/redshift.svg

<svg height="48pt" viewBox="0 0 48 48" width="48pt" xmlns="http://www.w3.org/2000/svg" xmlns:xlink="http://www.w3.org/1999/xlink"><linearGradient id="a" gradientUnits="userSpaceOnUse" x1="30.7607645" x2="30.7607645" y1="32.1280729999" y2="4.48485650586"><stop offset="0" stop-color="#b0bec5"/><stop offset="1" stop-color="#cfd8dc"/></linearGradient><linearGradient id="b"><stop offset="0" stop-opacity=".313725"/><stop offset=".222222" stop-opacity=".27451"/><stop offset="1" stop-opacity="0"/></linearGradient><radialGradient id="c" cx="450.908936" cy="189.579361" gradientTransform="matrix(.00000026 -.117199 -.210958 -.00000015 52.39664 95.392994)" gradientUnits="userSpaceOnUse" r="21.166656" xlink:href="#b"/><radialGradient id="d" cx="450.908936" cy="189.579361" gradientTransform="matrix(-.00000026 .117199 .210958 .00000015 -26.597289 -11.291223)" gradientUnits="userSpaceOnUse" r="21.166656" xlink:href="#b"/><radialGradient id="e" cx="450.908936" cy="189.579361" gradientTransform="matrix(-.00000026 -.117199 .210958 -.00000015 -26.597289 95.392994)" gradientUnits="userSpaceOnUse" r="21.166656" xlink:href="#b"/><radialGradient id="f" cx="450.908936" cy="189.579361" gradientTransform="matrix(.00000026 .117199 -.210958 .00000015 52.396638 -11.291224)" gradientUnits="userSpaceOnUse" r="21.166656" xlink:href="#b"/><linearGradient id="g"><stop offset="0" stop-color="#ffe0b2"/><stop offset="1" stop-color="#e0e0e0"/></linearGradient><linearGradient id="h" gradientUnits="userSpaceOnUse" x1="137.583328" x2="137.583328" xlink:href="#g" y1="233.5" y2="222.916672"/><linearGradient id="i" gradientUnits="userSpaceOnUse" x1="137.583328" x2="137.583328" xlink:href="#g" y1="222.916651" y2="74.749987"/><linearGradient id="j" gradientUnits="userSpaceOnUse" x1="12.899697" x2="12.899697" y1="31.13586280616" y2="10.29789729293"><stop offset="0" stop-color="#f44336"/><stop offset="1" stop-color="#ef5350"/></linearGradient><linearGradient id="k" gradientUnits="userSpaceOnUse" x1="145.52061" x2="148.16644" xlink:href="#g" y1="154.12454918561" y2="135.60373918561"/><linearGradient id="l" gradientUnits="userSpaceOnUse" x1="137.58312" x2="142.87478" xlink:href="#g" y1="196.45782918561" y2="175.29118918561"/><path d="m30.761719 4.34375c7.671875 0 13.890625 6.21875 13.890625 13.890625 0 7.675781-6.21875 13.894531-13.890625 13.894531s-13.894531-6.21875-13.894531-13.894531c0-7.671875 6.222656-13.890625 13.894531-13.890625zm0 0" fill="url(#a)"/><path d="m30.761719 4.34375c-7.695313 0-13.894531 6.195312-13.894531 13.890625 0 .085937.003906.167969.003906.25.132812-7.582031 6.277344-13.644531 13.890625-13.644531s13.757812 6.0625 13.886719 13.644531c.003906-.082031.003906-.164063.003906-.25 0-7.695313-6.195313-13.890625-13.890625-13.890625zm0 0" fill="#fff" fill-opacity=".392157"/><path d="m30.761719 32.128906c-7.695313 0-13.894531-6.195312-13.894531-13.894531 0-.082031.003906-.164063.003906-.246094.132812 7.582031 6.277344 13.644531 13.890625 13.644531s13.757812-6.0625 13.886719-13.644531c.003906.082031.003906.164063.003906.246094 0 7.699219-6.195313 13.894531-13.890625 13.894531zm0 0" fill-opacity=".235294"/><path d="m30.761719 4.203125c-7.773438 0-14.035157 6.261719-14.035157 14.03125 0 7.773437 6.261719 14.035156 14.035157 14.035156 7.769531 0 14.03125-6.261719 14.03125-14.035156 0-7.769531-6.261719-14.03125-14.03125-14.03125zm0 .28125c7.621093 0 13.75 6.132813 13.75 13.75 0 7.621094-6.128907 13.753906-13.75 13.753906-7.621094 0-13.753907-6.132812-13.753907-13.753906 0-7.617187 6.132813-13.75 13.753907-13.75zm0 0" fill="#333"/><path d="m12.898438 42.050781h3.96875v-1.984375h-3.96875zm0 0" fill="url(#c)"/><path d="m12.898438 42.050781h-3.96875v1.984375h3.96875zm0 0" fill="url(#d)"/><path d="m12.898438 42.050781h-3.96875v-1.984375h3.96875zm0 0" fill="url(#e)"/><path d="m12.898438 42.050781h3.96875v1.984375h-3.96875zm0 0" fill="url(#f)"/><path d="m137.570196 191.169546c11.707215 0 21.164646 5.624463 21.164646 12.540469v17.248353c0 6.916006-9.457431 12.540469-21.164646 12.540469-11.665553 0-21.164646-5.624463-21.164646-12.540469v-17.248353c0-6.916006 9.499093-12.540469 21.164646-12.540469zm0 0" fill="url(#h)" stroke="#212121" stroke-linecap="round" stroke-linejoin="round" stroke-width="3" transform="matrix(.093759 0 0 .093759 0 20.158175)"/><path d="m136.611954 74.763996h1.958147c22.831153 0 41.329386 4.707883 41.329386 10.582322v126.987874c0 5.832776-18.498233 10.582322-41.329386 10.582322h-1.958147c-22.831153 0-41.371049-4.749546-41.371049-10.582322v-126.987874c0-5.874439 18.539896-10.582322 41.371049-10.582322zm0 0" fill="url(#i)" stroke="#212121" stroke-linecap="round" stroke-linejoin="round" stroke-width="3" transform="matrix(.093759 0 0 .093759 0 20.158175)"/><path d="m12.898438 10.296875c-5.496094 0-9.921876 4.425781-9.921876 9.921875 0 3.691406 1.996094 6.902344 4.972657 8.609375.136719 1.292969 1.808593 2.308594 3.867187 2.308594h2.167969c2.054687 0 3.726563-1.015625 3.867187-2.308594 2.976563-1.707031 4.972657-4.917969 4.972657-8.609375 0-5.496094-4.425781-9.921875-9.925781-9.921875zm0 0" fill="url(#j)"/><path d="m95.240905 122.384448c-5.874439 0-10.582323 4.707884-10.582323 10.582323s4.707884 10.582323 10.582323 10.582323l84.658582 21.164645c5.874439 0 10.582323-4.707884 10.582323-10.582323s-4.707884-10.582322-10.582323-10.582322zm0 0" fill="url(#k)" stroke="#212121" stroke-linecap="round" stroke-linejoin="round" stroke-width="3" transform="matrix(.093759 0 0 .093759 0 20.158175)"/><path d="m95.240905 164.713739c-5.874439 0-10.582323 4.707884-10.582323 10.582323s4.707884 10.582323 10.582323 10.582323l84.658582 21.164645c5.874439 0 10.582323-4.707884 10.582323-10.582323s-4.707884-10.582322-10.582323-10.582322zm0 0" fill="url(#l)" stroke="#212121" stroke-linecap="round" stroke-linejoin="round" stroke-width="3" transform="matrix(.093759 0 0 .093759 0 20.158175)"/><path d="m12.898438 10.296875c-5.496094 0-9.921876 4.425781-9.921876 9.921875 0 .082031 0 .164062.003907.242188.132812-5.378907 4.507812-9.667969 9.917969-9.667969 5.414062 0 9.785156 4.289062 9.921874 9.667969 0-.078126.003907-.160157.003907-.242188 0-5.496094-4.425781-9.921875-9.925781-9.921875zm0 0" fill="#fff" fill-opacity=".392157"/><path d="m2.976562 19.957031v.132813c0 3.691406 1.996094 6.902344 4.972657 8.609375.136719 1.292969 1.808593 2.308593 3.867187 2.308593h2.167969c2.054687 0 3.726563-1.015624 3.867187-2.308593 2.976563-1.707031 4.972657-4.917969 4.972657-8.609375 0-.042969-.003907-.089844-.003907-.132813-.039062 3.644531-2.023437 6.808594-4.96875 8.5-.140624 1.292969-1.8125 2.304688-3.867187 2.304688h-2.167969c-2.058594 0-3.730468-1.011719-3.867187-2.304688-2.949219-1.691406-4.933594-4.855469-4.972657-8.5zm0 0" fill-opacity=".235294"/><path d="m12.898438 10.15625c-5.570313 0-10.0625 4.492188-10.0625 10.0625 0 3.722656 2.003906 6.957031 4.992187 8.699219.101563.667969.570313 1.253906 1.261719 1.671875.71875.429687 1.675781.6875 2.726562.6875h2.167969c1.050781 0 2.007813-.257813 2.726563-.6875.691406-.417969 1.160156-1.003906 1.261718-1.671875 2.988282-1.742188 4.992188-4.976563 4.992188-8.699219 0-5.570312-4.492188-10.0625-10.066406-10.0625zm0 .28125c5.421874 0 9.785156 4.363281 9.785156 9.78125 0 3.640625-1.96875 6.804688-4.902344 8.488281-.039062.023438-.066406.0625-.070312.109375-.0625.589844-.480469 1.128906-1.148438 1.53125-.664062.398438-1.574219.648438-2.578125.648438h-2.167969c-1.007812 0-1.914062-.25-2.582031-.648438-.664063-.402344-1.082031-.941406-1.148437-1.53125-.003907-.046875-.027344-.085937-.066407-.109375-2.933593-1.683593-4.902343-4.847656-4.902343-8.488281 0-5.417969 4.359374-9.78125 9.78125-9.78125zm0 0" fill="#212121"/><path d="m7.75 17.984375 2.035156 11.191406.277344-.050781-1.933594-10.636719 1.78125.890625 2.988282-.996094 2.988281.996094 1.785156-.890625-1.933594 10.636719.277344.050781 2.035156-11.191406-2.183593 1.09375-2.96875-.992187-2.964844.992187zm0 0" fill="#ffab91" fill-rule="evenodd"/><path d="m439.958009 1175.16343c-22.04514 0-39.996182 25.509376-39.996182 57.317364v5.196354c0 1.732119.157465 3.306771.157465 4.881424 22.517536 8.03073 48.499308 12.597223 76.213198 12.597223h87.393234c27.71389 0 53.695663-4.566493 76.055733-12.597223.157466-1.574653.157466-3.149305.157466-4.881424v-5.196354c0-31.807988-17.793578-57.317364-39.996183-57.317364zm0 0" style="fill:#81d4fa;fill-opacity:.235294;stroke-width:11.338583;stroke-linecap:round;stroke-linejoin:round;stroke:#212121" transform="scale(.0248071)"/></svg>

<?xml version="1.0" encoding="UTF-8"?>
<svg xmlns="http://www.w3.org/2000/svg" xmlns:xlink="http://www.w3.org/1999/xlink" width="48pt" height="48pt" viewBox="0 0 48 48" version="1.1">
<defs>
<linearGradient id="linear0" gradientUnits="userSpaceOnUse" x1="317.5" y1="127.666656" x2="317.5" y2="-167.166016" gradientTransform="matrix(0.093759,0,0,0.093759,0.992282,20.158175)">
<stop offset="0" style="stop-color:rgb(69.019608%,74.509804%,77.254902%);stop-opacity:1;"/>
<stop offset="1" style="stop-color:rgb(81.176471%,84.705882%,86.27451%);stop-opacity:1;"/>
</linearGradient>
<radialGradient id="radial0" gradientUnits="userSpaceOnUse" cx="450.908936" cy="189.579361" fx="450.908936" fy="189.579361" r="21.166656" gradientTransform="matrix(0.000000261256,-0.117199,-0.210958,-0.000000152308,52.39664,95.392994)">
<stop offset="0" style="stop-color:rgb(0%,0%,0%);stop-opacity:0.313725;"/>
<stop offset="0.222222" style="stop-color:rgb(0%,0%,0%);stop-opacity:0.27451;"/>
<stop offset="1" style="stop-color:rgb(0%,0%,0%);stop-opacity:0;"/>
</radialGradient>
<radialGradient id="radial1" gradientUnits="userSpaceOnUse" cx="450.908936" cy="189.579361" fx="450.908936" fy="189.579361" r="21.166656" gradientTransform="matrix(-0.000000261256,0.117199,0.210958,0.000000152308,-26.597289,-11.291223)">
<stop offset="0" style="stop-color:rgb(0%,0%,0%);stop-opacity:0.313725;"/>
<stop offset="0.222222" style="stop-color:rgb(0%,0%,0%);stop-opacity:0.27451;"/>
<stop offset="1" style="stop-color:rgb(0%,0%,0%);stop-opacity:0;"/>
</radialGradient>
<radialGradient id="radial2" gradientUnits="userSpaceOnUse" cx="450.908936" cy="189.579361" fx="450.908936" fy="189.579361" r="21.166656" gradientTransform="matrix(-0.000000261256,-0.117199,0.210958,-0.000000152308,-26.597289,95.392994)">
<stop offset="0" style="stop-color:rgb(0%,0%,0%);stop-opacity:0.313725;"/>
<stop offset="0.222222" style="stop-color:rgb(0%,0%,0%);stop-opacity:0.27451;"/>
<stop offset="1" style="stop-color:rgb(0%,0%,0%);stop-opacity:0;"/>
</radialGradient>
<radialGradient id="radial3" gradientUnits="userSpaceOnUse" cx="450.908936" cy="189.579361" fx="450.908936" fy="189.579361" r="21.166656" gradientTransform="matrix(0.000000261256,0.117199,-0.210958,0.000000152308,52.396638,-11.291224)">
<stop offset="0" style="stop-color:rgb(0%,0%,0%);stop-opacity:0.313725;"/>
<stop offset="0.222222" style="stop-color:rgb(0%,0%,0%);stop-opacity:0.27451;"/>
<stop offset="1" style="stop-color:rgb(0%,0%,0%);stop-opacity:0;"/>
</radialGradient>
<linearGradient id="linear1" gradientUnits="userSpaceOnUse" x1="169.333328" y1="233.5" x2="169.333328" y2="222.916672" gradientTransform="matrix(1,0,0,1,-31.75,0)">
<stop offset="0" style="stop-color:rgb(100%,87.843137%,69.803922%);stop-opacity:1;"/>
<stop offset="1" style="stop-color:rgb(87.843137%,87.843137%,87.843137%);stop-opacity:1;"/>
</linearGradient>
<linearGradient id="linear2" gradientUnits="userSpaceOnUse" x1="169.333328" y1="212.333328" x2="169.333328" y2="64.166664" gradientTransform="matrix(1,0,0,1,-31.75,10.583323)">
<stop offset="0" style="stop-color:rgb(100%,87.843137%,69.803922%);stop-opacity:1;"/>
<stop offset="1" style="stop-color:rgb(87.843137%,87.843137%,87.843137%);stop-opacity:1;"/>
</linearGradient>
<linearGradient id="linear3" gradientUnits="userSpaceOnUse" x1="640" y1="1215.118164" x2="640" y2="375.118103" gradientTransform="matrix(0.0248071,0,0,0.0248071,-2.976847,0.992305)">
<stop offset="0" style="stop-color:rgb(95.686275%,26.27451%,21.176471%);stop-opacity:1;"/>
<stop offset="1" style="stop-color:rgb(93.72549%,32.54902%,31.372549%);stop-opacity:1;"/>
</linearGradient>
<linearGradient id="linear4" gradientUnits="userSpaceOnUse" x1="670" y1="1395.118164" x2="680" y2="1325.118164" gradientTransform="matrix(0.264583,0,0,0.264583,-31.75,-215)">
<stop offset="0" style="stop-color:rgb(100%,87.843137%,69.803922%);stop-opacity:1;"/>
<stop offset="1" style="stop-color:rgb(87.843137%,87.843137%,87.843137%);stop-opacity:1;"/>
</linearGradient>
<linearGradient id="linear5" gradientUnits="userSpaceOnUse" x1="640" y1="1555.118164" x2="660" y2="1475.118164" gradientTransform="matrix(0.264583,0,0,0.264583,-31.75,-215)">
<stop offset="0" style="stop-color:rgb(100%,87.843137%,69.803922%);stop-opacity:1;"/>
<stop offset="1" style="stop-color:rgb(87.843137%,87.843137%,87.843137%);stop-opacity:1;"/>
</linearGradient>
</defs>
<g id="surface1">
<path style=" stroke:none;fill-rule:nonzero;fill:url(#linear0);" d="M 30.761719 4.34375 C 38.433594 4.34375 44.652344 10.5625 44.652344 18.234375 C 44.652344 25.910156 38.433594 32.128906 30.761719 32.128906 C 23.089844 32.128906 16.867188 25.910156 16.867188 18.234375 C 16.867188 10.5625 23.089844 4.34375 30.761719 4.34375 Z M 30.761719 4.34375 "/>
<path style=" stroke:none;fill-rule:nonzero;fill:rgb(100%,100%,100%);fill-opacity:0.392157;" d="M 30.761719 4.34375 C 23.066406 4.34375 16.867188 10.539062 16.867188 18.234375 C 16.867188 18.320312 16.871094 18.402344 16.871094 18.484375 C 17.003906 10.902344 23.148438 4.839844 30.761719 4.839844 C 38.375 4.839844 44.519531 10.902344 44.648438 18.484375 C 44.652344 18.402344 44.652344 18.320312 44.652344 18.234375 C 44.652344 10.539062 38.457031 4.34375 30.761719 4.34375 Z M 30.761719 4.34375 "/>
<path style=" stroke:none;fill-rule:nonzero;fill:rgb(0%,0%,0%);fill-opacity:0.235294;" d="M 30.761719 32.128906 C 23.066406 32.128906 16.867188 25.933594 16.867188 18.234375 C 16.867188 18.152344 16.871094 18.070312 16.871094 17.988281 C 17.003906 25.570312 23.148438 31.632812 30.761719 31.632812 C 38.375 31.632812 44.519531 25.570312 44.648438 17.988281 C 44.652344 18.070312 44.652344 18.152344 44.652344 18.234375 C 44.652344 25.933594 38.457031 32.128906 30.761719 32.128906 Z M 30.761719 32.128906 "/>
<path style=" stroke:none;fill-rule:nonzero;fill:rgb(20%,20%,20%);fill-opacity:1;" d="M 30.761719 4.203125 C 22.988281 4.203125 16.726562 10.464844 16.726562 18.234375 C 16.726562 26.007812 22.988281 32.269531 30.761719 32.269531 C 38.53125 32.269531 44.792969 26.007812 44.792969 18.234375 C 44.792969 10.464844 38.53125 4.203125 30.761719 4.203125 Z M 30.761719 4.484375 C 38.382812 4.484375 44.511719 10.617188 44.511719 18.234375 C 44.511719 25.855469 38.382812 31.988281 30.761719 31.988281 C 23.140625 31.988281 17.007812 25.855469 17.007812 18.234375 C 17.007812 10.617188 23.140625 4.484375 30.761719 4.484375 Z M 30.761719 4.484375 "/>
<path style=" stroke:none;fill-rule:nonzero;fill:url(#radial0);" d="M 12.898438 42.050781 L 16.867188 42.050781 L 16.867188 40.066406 L 12.898438 40.066406 Z M 12.898438 42.050781 "/>
<path style=" stroke:none;fill-rule:nonzero;fill:url(#radial1);" d="M 12.898438 42.050781 L 8.929688 42.050781 L 8.929688 44.035156 L 12.898438 44.035156 Z M 12.898438 42.050781 "/>
<path style=" stroke:none;fill-rule:nonzero;fill:url(#radial2);" d="M 12.898438 42.050781 L 8.929688 42.050781 L 8.929688 40.066406 L 12.898438 40.066406 Z M 12.898438 42.050781 "/>
<path style=" stroke:none;fill-rule:nonzero;fill:url(#radial3);" d="M 12.898438 42.050781 L 16.867188 42.050781 L 16.867188 44.035156 L 12.898438 44.035156 Z M 12.898438 42.050781 "/>
<path style="fill-rule:nonzero;fill:url(#linear1);stroke-width:3;stroke-linecap:round;stroke-linejoin:round;stroke:rgb(12.941177%,12.941177%,12.941177%);stroke-opacity:1;stroke-miterlimit:4;" d="M 137.570196 191.169546 C 149.277411 191.169546 158.734842 196.794009 158.734842 203.710015 L 158.734842 220.958368 C 158.734842 227.874374 149.277411 233.498837 137.570196 233.498837 C 125.904643 233.498837 116.40555 227.874374 116.40555 220.958368 L 116.40555 203.710015 C 116.40555 196.794009 125.904643 191.169546 137.570196 191.169546 Z M 137.570196 191.169546 " transform="matrix(0.093759,0,0,0.093759,0,20.158175)"/>
<path style="fill-rule:nonzero;fill:url(#linear2);stroke-width:3;stroke-linecap:round;stroke-linejoin:round;stroke:rgb(12.941177%,12.941177%,12.941177%);stroke-opacity:1;stroke-miterlimit:4;" d="M 136.611954 74.763996 L 138.570101 74.763996 C 161.401254 74.763996 179.899487 79.471879 179.899487 85.346318 L 179.899487 212.334192 C 179.899487 218.166968 161.401254 222.916514 138.570101 222.916514 L 136.611954 222.916514 C 113.780801 222.916514 95.240905 218.166968 95.240905 212.334192 L 95.240905 85.346318 C 95.240905 79.471879 113.780801 74.763996 136.611954 74.763996 Z M 136.611954 74.763996 " transform="matrix(0.093759,0,0,0.093759,0,20.158175)"/>
<path style=" stroke:none;fill-rule:nonzero;fill:url(#linear3);" d="M 12.898438 10.296875 C 7.402344 10.296875 2.976562 14.722656 2.976562 20.21875 C 2.976562 23.910156 4.972656 27.121094 7.949219 28.828125 C 8.085938 30.121094 9.757812 31.136719 11.816406 31.136719 L 13.984375 31.136719 C 16.039062 31.136719 17.710938 30.121094 17.851562 28.828125 C 20.828125 27.121094 22.824219 23.910156 22.824219 20.21875 C 22.824219 14.722656 18.398438 10.296875 12.898438 10.296875 Z M 12.898438 10.296875 "/>
<path style="fill-rule:nonzero;fill:url(#linear4);stroke-width:3;stroke-linecap:round;stroke-linejoin:round;stroke:rgb(12.941177%,12.941177%,12.941177%);stroke-opacity:1;stroke-miterlimit:4;" d="M 95.240905 122.384448 C 89.366466 122.384448 84.658582 127.092332 84.658582 132.966771 C 84.658582 138.84121 89.366466 143.549094 95.240905 143.549094 L 179.899487 164.713739 C 185.773926 164.713739 190.48181 160.005855 190.48181 154.131416 C 190.48181 148.256977 185.773926 143.549094 179.899487 143.549094 Z M 95.240905 122.384448 " transform="matrix(0.093759,0,0,0.093759,0,20.158175)"/>
<path style="fill-rule:nonzero;fill:url(#linear5);stroke-width:3;stroke-linecap:round;stroke-linejoin:round;stroke:rgb(12.941177%,12.941177%,12.941177%);stroke-opacity:1;stroke-miterlimit:4;" d="M 95.240905 164.713739 C 89.366466 164.713739 84.658582 169.421623 84.658582 175.296062 C 84.658582 181.170501 89.366466 185.878385 95.240905 185.878385 L 179.899487 207.04303 C 185.773926 207.04303 190.48181 202.335146 190.48181 196.460707 C 190.48181 190.586268 185.773926 185.878385 179.899487 185.878385 Z M 95.240905 164.713739 " transform="matrix(0.093759,0,0,0.093759,0,20.158175)"/>
<path style=" stroke:none;fill-rule:nonzero;fill:rgb(100%,100%,100%);fill-opacity:0.392157;" d="M 12.898438 10.296875 C 7.402344 10.296875 2.976562 14.722656 2.976562 20.21875 C 2.976562 20.300781 2.976562 20.382812 2.980469 20.460938 C 3.113281 15.082031 7.488281 10.792969 12.898438 10.792969 C 18.3125 10.792969 22.683594 15.082031 22.820312 20.460938 C 22.820312 20.382812 22.824219 20.300781 22.824219 20.21875 C 22.824219 14.722656 18.398438 10.296875 12.898438 10.296875 Z M 12.898438 10.296875 "/>
<path style=" stroke:none;fill-rule:nonzero;fill:rgb(0%,0%,0%);fill-opacity:0.235294;" d="M 2.976562 19.957031 C 2.976562 20 2.976562 20.046875 2.976562 20.089844 C 2.976562 23.78125 4.972656 26.992188 7.949219 28.699219 C 8.085938 29.992188 9.757812 31.007812 11.816406 31.007812 L 13.984375 31.007812 C 16.039062 31.007812 17.710938 29.992188 17.851562 28.699219 C 20.828125 26.992188 22.824219 23.78125 22.824219 20.089844 C 22.824219 20.046875 22.820312 20 22.820312 19.957031 C 22.78125 23.601562 20.796875 26.765625 17.851562 28.457031 C 17.710938 29.75 16.039062 30.761719 13.984375 30.761719 L 11.816406 30.761719 C 9.757812 30.761719 8.085938 29.75 7.949219 28.457031 C 5 26.765625 3.015625 23.601562 2.976562 19.957031 Z M 2.976562 19.957031 "/>
<path style=" stroke:none;fill-rule:nonzero;fill:rgb(12.941177%,12.941177%,12.941177%);fill-opacity:1;" d="M 12.898438 10.15625 C 7.328125 10.15625 2.835938 14.648438 2.835938 20.21875 C 2.835938 23.941406 4.839844 27.175781 7.828125 28.917969 C 7.929688 29.585938 8.398438 30.171875 9.089844 30.589844 C 9.808594 31.019531 10.765625 31.277344 11.816406 31.277344 L 13.984375 31.277344 C 15.035156 31.277344 15.992188 31.019531 16.710938 30.589844 C 17.402344 30.171875 17.871094 29.585938 17.972656 28.917969 C 20.960938 27.175781 22.964844 23.941406 22.964844 20.21875 C 22.964844 14.648438 18.472656 10.15625 12.898438 10.15625 Z M 12.898438 10.4375 C 18.320312 10.4375 22.683594 14.800781 22.683594 20.21875 C 22.683594 23.859375 20.714844 27.023438 17.78125 28.707031 C 17.742188 28.730469 17.714844 28.769531 17.710938 28.816406 C 17.648438 29.40625 17.230469 29.945312 16.5625 30.347656 C 15.898438 30.746094 14.988281 30.996094 13.984375 30.996094 L 11.816406 30.996094 C 10.808594 30.996094 9.902344 30.746094 9.234375 30.347656 C 8.570312 29.945312 8.152344 29.40625 8.085938 28.816406 C 8.082031 28.769531 8.058594 28.730469 8.019531 28.707031 C 5.085938 27.023438 3.117188 23.859375 3.117188 20.21875 C 3.117188 14.800781 7.476562 10.4375 12.898438 10.4375 Z M 12.898438 10.4375 "/>
<path style=" stroke:none;fill-rule:evenodd;fill:rgb(100%,67.058825%,56.862748%);fill-opacity:1;" d="M 7.75 17.984375 L 9.785156 29.175781 L 10.0625 29.125 L 8.128906 18.488281 L 9.910156 19.378906 L 12.898438 18.382812 L 15.886719 19.378906 L 17.671875 18.488281 L 15.738281 29.125 L 16.015625 29.175781 L 18.050781 17.984375 L 15.867188 19.078125 L 12.898438 18.085938 L 9.933594 19.078125 Z M 7.75 17.984375 "/>
<path style="fill-rule:nonzero;fill:rgb(50.588238%,83.137256%,98.039216%);fill-opacity:0.235294;stroke-width:11.338583;stroke-linecap:round;stroke-linejoin:round;stroke:rgb(12.941177%,12.941177%,12.941177%);stroke-opacity:1;stroke-miterlimit:4;" d="M 439.958009 1175.16343 C 417.912869 1175.16343 399.961827 1200.672806 399.961827 1232.480794 L 399.961827 1237.677148 C 399.961827 1239.409267 400.119292 1240.983919 400.119292 1242.558572 C 422.636828 1250.589302 448.6186 1255.155795 476.33249 1255.155795 L 563.725724 1255.155795 C 591.439614 1255.155795 617.421387 1250.589302 639.781457 1242.558572 C 639.938923 1240.983919 639.938923 1239.409267 639.938923 1237.677148 L 639.938923 1232.480794 C 639.938923 1200.672806 622.145345 1175.16343 599.94274 1175.16343 Z M 439.958009 1175.16343 " transform="matrix(0.0248071,0,0,0.0248071,0,0)"/>
</g>
</svg>
